X:1
T:Title
%%score 1 2 3 4
L:1/8
M:2/2
K:C
V:1 treble nm="Part_1"
V:2 treble-8 nm="Part_2"
V:3 bass nm="Part_3"
V:4 bass nm="Part_4"
V:1
 D8- | D8 | D8 | D8 | C8- | C8 | D8 | F8 | D4 E4- | E4 F4 | G6 F2 | E6 D2 | F2 E2 D4- | D4 ^C4 | %14
 D8 | z8 | D8 | C4 D4 | E8 | F8 | G8 | E4 F4 | G4 A4- | A4 F4 | E4 A4- | A4 ^G4 | A8- | A8 | z8 | %29
 z8 | A8 | A4 G4- | G2 FG A4- | A4 F4 | G4 F4 | E8 | F4 D4 | E2 F2 G4 | F6 E2 | E2 D2 D4- | %40
 D4 ^C4 | D8 | z8 | D8 | C8- | C8 | D8 | F4 E2 D2 | E8 | F4 G4- | G2 F2 D4 | C4 D4 | E4 D2 F2- | %53
 F2 G2 A4- | A2 G2 F4 | E6 C2 | D4 E4- | E2 D2 C2 B,2 | A,8 | D4 E4- | E2 D2 F4- | F2 E2 D4- | %62
 D2 B,2 C4 | D8- | D8 |] %65
V:2
 A8- | A8 | _B8- | B4 G2 F2 | E8 | F4 E4 | D4 F4- | F2 D2 F2 EF | G8 | c4 (3:2:2d4 B2 | c6 B2 | %11
 c6 A2 | A8 | z4 A4 | F6 E2 | A4 A4- | A4 G4 | A4 z4 | A4 (3c4 Bc | d6 B2 | B4 A4 | G4 c4 | z8 | %23
 z8 | z8 | z8 | c6 B2 | A4 d4- | d4 c4 | d8- | d4 A4- | A2 B2 c4 | G2 d4 c2 | d6 cA | G4 A4- | %35
 A4 z4 | A4 A4- | A4 G2 B2- | BA d4 c2 | c4 B2 A2 | A8 | F6 D2 | G2 (3:2:2B8 A- | %43
 (3:2:1A3 G2 G2 F2 | A6 GF | E6 F2 | G4 z4 | D4 F4 | E2 G3 F A2 | F3 D E2 C2- | C2 D2 B,4 | %51
 A,4 z4 | E2 G3 F A2- | A2 B2 c4 | B2 A2 A4- | A4 z4 | G4 F2 A2- | A2 F2 E4 | F2 D4 C2 | %59
 B,4 z2 E2 | C4 c4- | c4 B2 A2 | A8 | F8 | A8 |] %65
V:3
 D,8- | D,8 | G,8 | F,4 G,4 | A,8- | A,8 | F,4 D,4- | D,4 A,4 | _B,4 G,4 | (3:2:2A,8 G,4 | %10
 E,4 G,4- | G,2 F,2 A,4- | A,2 G,2 F,4 | E,8 | D,8- | D,4 C,4 | B,,8 | A,,8- | A,,4 A,4- | %19
 A,4 B,4- | B,4 C4- | C4 A,4 | B,4 C4 | D8 | C4 A,4 | B,8 | A,8 | F,4 D,4 | E,8 | D,8 | z4 D,4 | %31
 F,4 (3:2:2G,4 A,2 | _B,4 A,4 | D,8 | B,2 C2 D4 | C2 C4 B,2 | D8 | C4 B,2 G,2 | A,8 | G,4 F,4 | %40
 E,8 | D,8 | E,4 C,4 | B,,8 | A,,8 | z4 A,4 | B,4 G,4 | A,4 B,4 | C4 A,4- | A,4 G,4 | B,8 | %51
 C2 A,2 B,4 | C4 (3:2:1D6- | (3D2 C2 B,2 A,4 | D8 | C4 A,4 | B,2 G,4 F,2 | A,6 G,2 | F,2 E,2 D,4- | %59
 D,4 C,4 | A,,4 A,4 | G,4 F,4 | E,8 | D,8- | D,8 |] %65
V:4
 D,8- | D,8 | G,,8 | _B,,8 | A,,8 | z4 A,,4 | _B,,6 C,2 | D,4 D,4 | G,,4 C,4 | A,,4 D,4 | %10
 C,2 D,2 E,4 | C,4 A,,4 | D,8 | A,,8 | A,6 G,2 | F,2 E,2 E,4- | E,2 D,2 D,2 C,2 | E,8 | %18
 C,2 B,,2 A,,4 | D,8 | E,4 C,4- | C,4 F,4 | D,2 G,2 F,4 | D,8 | A,4 F,4 | E,8 | z4 F,4- | %27
 F,2 D,2 F,4 | G,6 F,2 | A,8 | F,8 | D,4 E,4 | z4 F,4- | F,2 G,2 A,2 F,2 | E,4 D,4 | A,8 | D,8 | %37
 A,,4 E,4 | F,2 D,4 A,,2 | C,4 D,4 | A,,8 | A,6 G,2 | G,2 F,2 E,4- | E,4 D,4 | E,8 | C,8 | G,,8 | %47
 z4 D,4 | C,8 | D,4 E,4- | E,2 F,2 G,2 F,G, | A,4 G,4 | E,4 D,4 | F,6 E,2 | D,6 C,B,, | A,,8 | %56
 z4 B,,2 C,2 | A,,8 | D,4 F,4- | F,2 D,2 G,4 | A,4 A,,4 | C,4 D,4 | A,,8 | A,8- | A,8 |] %65

